X:49
T:The Water of Leith
M:9/8
L:1/8
R:Slip jig
C:Gris Sanderson
Q:400
N:This  tune came into my head after I had taken a stroll with
N:my brother along the Water of Leith on a cold winter's day.
K:A
e||gab a2g edA|Bde d2A cAc|
fab a2g edB|1ABd c2A d2e:|2ABd c2A =G2F||
||A,=G,A, =C2A,- A,G,A,|A,=G,A, =CB,C DB,G,|
A,de d2A cAc|B z=G, G,B,A, G,2B,|
A,=G,A, =C2A,- A,G,A,|A,=G,A, =CA,C DdA|
Bde d2A cAa|bag edB A2||
